.local/share/icons/Gruvbox-Plus-Dark/mimetypes/scalable/text-css.svg

<svg width="256" height="256" viewBox="0 0 256 256" fill="none" xmlns="http://www.w3.org/2000/svg">
<g opacity="0.4" filter="url(#filter0_f)">
<path d="M55.0839 15.5636H155.608L216.009 75.7129L216.011 224.609C216.011 233.52 208.749 240.737 199.838 240.737H55.0838C46.1734 240.737 39 233.564 39 224.654V31.6474C39 22.737 46.1734 15.5636 55.0838 15.5636H55.0839Z" fill="#282828"/>
</g>
<path d="M55.0839 15H155.608L216.009 75.1493L216.011 224.045C216.011 232.956 208.749 240.174 199.838 240.174H55.0838C46.1734 240.174 39 233 39 224.09V31.0838C39 22.1734 46.1734 15 55.0838 15H55.0839Z" fill="#ebdbb2"/>
<path fill-rule="evenodd" clip-rule="evenodd" d="M155.609 22.9787H55.0839C50.58 22.9787 46.9787 26.5799 46.9787 31.0838V224.09C46.9787 228.594 50.5799 232.195 55.0838 232.195H199.838C204.371 232.195 208.032 228.521 208.032 224.046V75.1493L155.609 22.9787ZM155.608 15H55.0839C46.1735 15 39 22.1734 39 31.0838V224.09C39 233 46.1734 240.174 55.0838 240.174H199.838C208.749 240.174 216.011 232.956 216.011 224.045L216.009 75.1493L155.608 15Z" fill="url(#paint0_linear)"/>
<path fill-rule="evenodd" clip-rule="evenodd" d="M104.247 80.0023C104.085 79.9975 103.924 80.0002 103.762 80.0106C103.299 80.043 102.842 80.1381 102.404 80.2935C102.404 80.2935 99.1924 81.3551 95.4703 83.3161C91.7484 85.277 87.2273 88.0237 84.3176 92.7391C81.0785 97.9876 82.3081 103.603 83.3154 106.963C84.3227 110.323 84.8762 111.793 83.9458 114.042C83.4914 115.141 80.7045 117.542 77.6584 119.037C74.6101 120.532 71.8476 121.316 71.8476 121.316C71.1903 121.486 70.5732 121.785 70.0321 122.196C69.491 122.606 69.0367 123.121 68.6954 123.708C68.3542 124.296 68.1327 124.946 68.044 125.62C67.9553 126.294 68.001 126.979 68.1785 127.635C67.8659 128.939 68.0746 130.314 68.7601 131.466C69.4456 132.618 70.5536 133.456 71.8476 133.802C71.8476 133.802 74.6122 134.585 77.6584 136.081C80.7046 137.576 83.4919 139.985 83.9458 141.083C84.8762 143.333 84.3227 144.803 83.3154 148.163C82.3081 151.523 81.0786 157.138 84.3176 162.387C87.2277 167.102 91.7487 169.849 95.4703 171.81C99.1921 173.771 102.404 174.832 102.404 174.832C103.051 175.078 103.741 175.19 104.433 175.162C105.124 175.134 105.803 174.966 106.428 174.668C107.053 174.37 107.611 173.949 108.069 173.43C108.528 172.911 108.876 172.304 109.095 171.647C109.313 170.989 109.396 170.294 109.339 169.603C109.282 168.913 109.086 168.241 108.763 167.628C108.44 167.015 107.997 166.474 107.459 166.037C106.922 165.6 106.302 165.276 105.637 165.086C105.637 165.086 103.195 164.259 100.255 162.709C97.3144 161.16 94.1654 158.773 93.054 156.972C91.7964 154.934 92.2077 154.231 93.1429 151.112C94.078 147.993 95.7684 142.811 93.4257 137.147C91.351 132.131 87.209 129.476 83.5016 127.562C87.2091 125.648 91.351 122.993 93.4257 117.977C95.7684 112.314 94.078 107.131 93.1429 104.012C92.2078 100.893 91.7965 100.191 93.054 98.1531C94.1657 96.3516 97.3147 93.9561 100.255 92.4069C103.195 90.8578 105.637 90.0389 105.637 90.0389C106.79 89.6716 107.776 88.9083 108.421 87.8837C109.067 86.8591 109.33 85.6391 109.165 84.4391C109 83.239 108.416 82.136 107.518 81.3246C106.62 80.5133 105.464 80.0458 104.255 80.0047H104.247L104.247 80.0023ZM151.729 80.0023C150.519 80.0447 149.364 80.5138 148.466 81.3267C147.568 82.1396 146.986 83.244 146.823 84.4449C146.66 85.6457 146.925 86.8658 147.573 87.8896C148.221 88.9134 149.209 89.675 150.363 90.0399C150.363 90.0399 152.805 90.8587 155.745 92.4079C158.685 93.9571 161.835 96.3524 162.946 98.1541C164.204 100.192 163.792 100.894 162.857 104.013C161.922 107.132 160.232 112.315 162.574 117.978C164.649 122.994 168.791 125.649 172.498 127.563C168.791 129.478 164.649 132.132 162.574 137.148C160.232 142.812 161.922 147.994 162.857 151.113C163.792 154.232 164.204 154.935 162.946 156.973C161.834 158.774 158.685 161.161 155.745 162.71C152.805 164.26 150.363 165.086 150.363 165.086C149.698 165.277 149.078 165.601 148.541 166.038C148.003 166.475 147.56 167.016 147.237 167.629C146.914 168.242 146.718 168.913 146.661 169.604C146.604 170.295 146.687 170.99 146.905 171.647C147.124 172.305 147.472 172.912 147.931 173.431C148.389 173.95 148.947 174.371 149.572 174.669C150.197 174.967 150.876 175.135 151.567 175.163C152.259 175.191 152.949 175.079 153.596 174.833C153.596 174.833 156.808 173.772 160.53 171.811C164.251 169.849 168.772 167.103 171.682 162.387C174.921 157.139 173.692 151.524 172.685 148.164C171.677 144.803 171.124 143.334 172.054 141.084C172.508 139.986 175.295 137.577 178.342 136.082C181.388 134.586 184.152 133.803 184.152 133.803C185.446 133.457 186.554 132.619 187.24 131.467C187.925 130.315 188.134 128.94 187.822 127.636C187.999 126.98 188.045 126.295 187.956 125.621C187.867 124.947 187.646 124.297 187.305 123.709C186.963 123.122 186.509 122.607 185.968 122.197C185.427 121.786 184.81 121.487 184.152 121.317C184.152 121.317 181.39 120.533 178.342 119.038C175.295 117.542 172.509 115.142 172.054 114.043C171.124 111.794 171.677 110.324 172.685 106.964C173.692 103.604 174.921 97.9885 171.682 92.7401C168.773 88.0246 164.252 85.2779 160.53 83.317C156.808 81.3561 153.588 80.2944 153.588 80.2944C153.151 80.14 152.696 80.0453 152.235 80.0131C152.071 80.0024 151.906 79.9997 151.742 80.0048C151.737 80.0048 151.731 80.0048 151.726 80.0048L151.729 80.0023ZM127.998 100.692C125.255 100.692 122.623 101.781 120.684 103.721C118.744 105.661 117.654 108.293 117.654 111.036C117.654 113.78 118.744 116.411 120.684 118.351C122.623 120.291 125.255 121.381 127.998 121.381C130.742 121.381 133.373 120.291 135.313 118.351C137.253 116.411 138.343 113.78 138.343 111.036C138.343 108.293 137.253 105.661 135.313 103.721C133.373 101.781 130.742 100.692 127.998 100.692V100.692ZM127.998 131.725C122.285 131.725 117.654 136.357 117.654 142.07C117.654 147.783 122.285 152.414 127.998 152.414C131.655 152.414 133.171 162.759 133.171 162.759C133.171 162.759 138.343 144.126 138.343 142.07C138.343 136.356 133.711 131.725 127.998 131.725Z" fill="url(#paint1_linear)"/>
<path opacity="0.25" d="M155.608 17V61.2306C155.608 70.141 162.867 77.1605 171.777 77.1605L216.009 77.1493V75.1493L155.608 17Z" fill="#282828"/>
<path d="M155.608 15V59.2306C155.608 68.141 162.867 75.1605 171.777 75.1605L216.009 75.1493L155.608 15Z" fill="url(#paint2_linear)"/>
<defs>
<filter id="filter0_f" x="23.8778" y="0.441412" width="207.255" height="255.418" filterUnits="userSpaceOnUse" color-interpolation-filters="sRGB">
<feFlood flood-opacity="0" result="BackgroundImageFix"/>
<feBlend mode="normal" in="SourceGraphic" in2="BackgroundImageFix" result="shape"/>
<feGaussianBlur stdDeviation="7.5611" result="effect1_foregroundBlur"/>
</filter>
<linearGradient id="paint0_linear" x1="126.411" y1="14.914" x2="127.127" y2="240.916" gradientUnits="userSpaceOnUse">
<stop stop-color="#83a598"/>
<stop offset="1" stop-color="#458588"/>
</linearGradient>
<linearGradient id="paint1_linear" x1="127.258" y1="79.9636" x2="127.447" y2="175.481" gradientUnits="userSpaceOnUse">
<stop stop-color="#83a598"/>
<stop offset="1" stop-color="#458588"/>
</linearGradient>
<linearGradient id="paint2_linear" x1="185.435" y1="14.977" x2="185.585" y2="75.3591" gradientUnits="userSpaceOnUse">
<stop stop-color="#83a598"/>
<stop offset="1" stop-color="#458588"/>
</linearGradient>
</defs>
</svg>

<svg width="256" height="256" fill="none" version="1.1" viewBox="0 0 256 256" xmlns="http://www.w3.org/2000/svg">
  <path d="m55.08 15h100.5l60.4 60.15 2e-3 148.9c0 8.911-7.262 16.13-16.17 16.13h-144.8c-8.91 0-16.08-7.174-16.08-16.08v-193c0-8.91 7.173-16.08 16.08-16.08h1e-4z" fill="#ebdbb2"/>
  <path d="m155.6 22.98h-100.5c-4.504 0-8.105 3.601-8.105 8.105v193c0 4.504 3.601 8.105 8.105 8.105h144.8c4.533 0 8.194-3.674 8.194-8.149v-148.9l-52.42-52.17zm-1e-3 -7.979h-100.5c-8.91 0-16.08 7.173-16.08 16.08v193c0 8.91 7.173 16.08 16.08 16.08h144.8c8.911 0 16.17-7.218 16.17-16.13l-2e-3 -148.9-60.4-60.15z" clip-rule="evenodd" fill="url(#paint0_linear)" fill-rule="evenodd"/>
  <path d="m104.2 80c-0.162-0.0048-0.323-0.0021-0.485 0.0083-0.463 0.0324-0.92 0.1275-1.358 0.2829 0 0-3.212 1.062-6.934 3.023-3.722 1.961-8.243 4.708-11.15 9.423-3.239 5.248-2.01 10.86-1.002 14.22s1.561 4.83 0.6304 7.079c-0.4544 1.099-3.241 3.5-6.287 4.995-3.048 1.495-5.811 2.279-5.811 2.279-0.6573 0.17-1.274 0.469-1.816 0.88-0.5411 0.41-0.9954 0.925-1.337 1.512-0.3412 0.588-0.5627 1.238-0.6514 1.912s-0.043 1.359 0.1345 2.015c-0.3126 1.304-0.1039 2.679 0.5816 3.831s1.794 1.99 3.088 2.336c0 0 2.765 0.783 5.811 2.279 3.046 1.495 5.834 3.904 6.287 5.002 0.9304 2.25 0.3769 3.72-0.6304 7.08s-2.237 8.975 1.002 14.22c2.91 4.715 7.431 7.462 11.15 9.423 3.722 1.961 6.934 3.022 6.934 3.022 0.647 0.246 1.337 0.358 2.029 0.33 0.691-0.028 1.37-0.196 1.995-0.494s1.183-0.719 1.641-1.238c0.459-0.519 0.807-1.126 1.026-1.783 0.218-0.658 0.301-1.353 0.244-2.044-0.057-0.69-0.253-1.362-0.576-1.975s-0.766-1.154-1.304-1.591c-0.537-0.437-1.157-0.761-1.822-0.951 0 0-2.442-0.827-5.382-2.377-2.941-1.549-6.09-3.936-7.201-5.737-1.258-2.038-0.8463-2.741 0.0889-5.86 0.9351-3.119 2.626-8.301 0.2828-13.96-2.075-5.016-6.217-7.671-9.924-9.585 3.708-1.914 7.849-4.569 9.924-9.585 2.343-5.663 0.6523-10.85-0.2828-13.96s-1.346-3.821-0.0889-5.859c1.112-1.802 4.261-4.197 7.201-5.746 2.94-1.549 5.382-2.368 5.382-2.368 1.153-0.3673 2.139-1.131 2.784-2.155 0.646-1.025 0.909-2.245 0.744-3.445-0.165-1.2-0.749-2.303-1.647-3.114-0.898-0.8113-2.054-1.279-3.263-1.32h-8e-3v-0.0024zm47.48 0c-1.21 0.0424-2.365 0.5115-3.263 1.324s-1.48 1.917-1.643 3.118c-0.163 1.201 0.102 2.421 0.75 3.445s1.636 1.785 2.79 2.15c0 0 2.442 0.8188 5.382 2.368s6.09 3.944 7.201 5.746c1.258 2.038 0.846 2.74-0.089 5.859s-2.625 8.302-0.283 13.96c2.075 5.016 6.217 7.671 9.924 9.585-3.707 1.915-7.849 4.569-9.924 9.585-2.342 5.664-0.652 10.85 0.283 13.96s1.347 3.822 0.089 5.86c-1.112 1.801-4.261 4.188-7.201 5.737-2.94 1.55-5.382 2.376-5.382 2.376-0.665 0.191-1.285 0.515-1.822 0.952-0.538 0.437-0.981 0.978-1.304 1.591s-0.519 1.284-0.576 1.975 0.026 1.386 0.244 2.043c0.219 0.658 0.567 1.265 1.026 1.784 0.458 0.519 1.016 0.94 1.641 1.238s1.304 0.466 1.995 0.494c0.692 0.028 1.382-0.084 2.029-0.33 0 0 3.212-1.061 6.934-3.022 3.721-1.962 8.242-4.708 11.15-9.424 3.239-5.248 2.01-10.86 1.003-14.22-1.008-3.361-1.561-4.83-0.631-7.08 0.454-1.098 3.241-3.507 6.288-5.002 3.046-1.496 5.81-2.279 5.81-2.279 1.294-0.346 2.402-1.184 3.088-2.336 0.685-1.152 0.894-2.527 0.582-3.831 0.177-0.656 0.223-1.341 0.134-2.015s-0.31-1.324-0.651-1.912c-0.342-0.587-0.796-1.102-1.337-1.512-0.541-0.411-1.158-0.71-1.816-0.88 0 0-2.762-0.784-5.81-2.279-3.047-1.496-5.833-3.896-6.288-4.995-0.93-2.249-0.377-3.719 0.631-7.079 1.007-3.36 2.236-8.976-1.003-14.22-2.909-4.716-7.43-7.462-11.15-9.423s-6.942-3.023-6.942-3.023c-0.437-0.1544-0.892-0.2491-1.353-0.2813-0.164-0.0107-0.329-0.0134-0.493-0.0083h-0.016l3e-3 -0.0025zm-23.73 20.69c-2.743 0-5.375 1.089-7.314 3.029-1.94 1.94-3.03 4.572-3.03 7.315 0 2.744 1.09 5.375 3.03 7.315 1.939 1.94 4.571 3.03 7.314 3.03 2.744 0 5.375-1.09 7.315-3.03s3.03-4.571 3.03-7.315c0-2.743-1.09-5.375-3.03-7.315s-4.571-3.029-7.315-3.029zm0 31.03c-5.713 0-10.34 4.632-10.34 10.34s4.631 10.34 10.34 10.34c3.657 0 5.173 10.34 5.173 10.34s5.172-18.63 5.172-20.69c0-5.714-4.632-10.34-10.34-10.34z" clip-rule="evenodd" fill="url(#paint1_linear)" fill-rule="evenodd"/>
  <path d="m155.6 17v44.23c0 8.91 7.259 15.93 16.17 15.93l44.23-0.0112v-2l-60.4-58.15z" fill="#282828" opacity=".25"/>
  <path d="m155.6 15v44.23c0 8.91 7.259 15.93 16.17 15.93l44.23-0.0112-60.4-60.15z" fill="url(#paint2_linear)"/>
  <defs>
    <linearGradient id="paint0_linear" x1="126.4" x2="127.1" y1="14.91" y2="240.9" gradientUnits="userSpaceOnUse">
      <stop stop-color="#83a598" offset="0"/>
      <stop stop-color="#458588" offset="1"/>
    </linearGradient>
    <linearGradient id="paint1_linear" x1="127.3" x2="127.4" y1="79.96" y2="175.5" gradientUnits="userSpaceOnUse">
      <stop stop-color="#83a598" offset="0"/>
      <stop stop-color="#458588" offset="1"/>
    </linearGradient>
    <linearGradient id="paint2_linear" x1="185.4" x2="185.6" y1="14.98" y2="75.36" gradientUnits="userSpaceOnUse">
      <stop stop-color="#83a598" offset="0"/>
      <stop stop-color="#458588" offset="1"/>
    </linearGradient>
  </defs>
</svg>
